FINK
CUT[BEKRAENZT MIT LAUB DEN LIEBEN VOLLEN BECHER]
REG[Europa, Mitteleuropa, Deutschland]
KEY[F0764A 16 Bb 2/4]
MEL[-5_  1__1__  1__.
    -6_  -5_-3_-6_-5_  -5_.-4-3_
    -5_  3_1_5_3_  2__.
    1_  -7_-5_2_2_  -5__0_
    -5_  -6__-7__  1__.
    2_  3_1_4_3_  3_2_0_
    5_  4_3_2_1_  -7_
    -6_-5_1_  2__-7__  1__0_ //] >>
FCT[Geselligkeits -, Trink - Lied]
